apps/32/thunderbird.svg

<?xml version="1.0" encoding="UTF-8" standalone="no"?>
<!-- Created with Inkscape (http://www.inkscape.org/) -->

<svg
   width="32"
   height="32"
   version="1.1"
   viewBox="0 0 32 32"
   id="svg22"
   xmlns:xlink="http://www.w3.org/1999/xlink"
   xmlns="http://www.w3.org/2000/svg"
   xmlns:svg="http://www.w3.org/2000/svg">
  <defs
     id="defs12">
    <linearGradient
       id="linearGradient917">
      <stop
         style="stop-color:#000000;stop-opacity:0.99607843"
         offset="0"
         id="stop913" />
      <stop
         style="stop-color:#353a3f;stop-opacity:0.99607843"
         offset="1"
         id="stop915" />
    </linearGradient>
    <linearGradient
       xlink:href="#linearGradient3487"
       id="linearGradient3403"
       gradientUnits="userSpaceOnUse"
       x1="6.9491749"
       y1="4.5549412"
       x2="11.215498"
       y2="59.052471" />
    <linearGradient
       id="linearGradient3487">
      <stop
         style="stop-color:#32373c;stop-opacity:1"
         offset="0"
         id="stop3481" />
      <stop
         id="stop3483"
         offset="0.36804965"
         style="stop-color:#1a1a1a;stop-opacity:1" />
      <stop
         style="stop-color:#31363b;stop-opacity:1"
         offset="1"
         id="stop3485" />
    </linearGradient>
    <linearGradient
       xlink:href="#linearGradient20604"
       id="linearGradient20558"
       gradientUnits="userSpaceOnUse"
       x1="25.802212"
       y1="20.373846"
       x2="25.111048"
       y2="58.912758" />
    <linearGradient
       id="linearGradient20604">
      <stop
         id="stop20598"
         offset="0"
         style="stop-color:#3d3d3d;stop-opacity:1" />
      <stop
         style="stop-color:#000000;stop-opacity:1"
         offset="0.61772454"
         id="stop20600" />
      <stop
         id="stop20602"
         offset="1"
         style="stop-color:#3d3d3d;stop-opacity:1" />
    </linearGradient>
    <filter
       style="color-interpolation-filters:sRGB"
       id="filter20720"
       x="-0.017024755"
       y="-0.016457183"
       width="1.0340491"
       height="1.0329144">
      <feGaussianBlur
         stdDeviation="0.14745661"
         id="feGaussianBlur20722" />
    </filter>
    <linearGradient
       gradientTransform="translate(0.36067797,-0.13016949)"
       xlink:href="#linearGradient4555"
       id="linearGradient4557"
       x1="43.499737"
       y1="64.011795"
       x2="44.141731"
       y2="0.30621234"
       gradientUnits="userSpaceOnUse" />
    <linearGradient
       id="linearGradient4555">
      <stop
         style="stop-color:#141618;stop-opacity:1"
         offset="0"
         id="stop4551" />
      <stop
         id="stop4559"
         offset="0.51820582"
         style="stop-color:#686868;stop-opacity:1" />
      <stop
         style="stop-color:#31363b;stop-opacity:1"
         offset="1"
         id="stop4553" />
    </linearGradient>
    <filter
       style="color-interpolation-filters:sRGB"
       id="filter4601"
       x="-0.030244762"
       width="1.0604895"
       y="-0.030100647"
       height="1.0602013">
      <feGaussianBlur
         stdDeviation="0.014790289"
         id="feGaussianBlur4603" />
    </filter>
    <linearGradient
       xlink:href="#linearGradient917"
       id="linearGradient919"
       x1="7.400631"
       y1="41.743092"
       x2="33.063145"
       y2="7.1074457"
       gradientUnits="userSpaceOnUse"
       gradientTransform="scale(0.66499999)" />
  </defs>
  <rect
     style="display:inline;fill:url(#linearGradient919);fill-opacity:1;fill-rule:evenodd;stroke:none;stroke-width:0.617;stroke-linejoin:round;stroke-miterlimit:7.8"
     id="rect1192"
     width="27.986259"
     height="28.403553"
     x="2.1033354"
     y="2.0072956"
     ry="0" />
  <g
     id="g15"
     transform="matrix(0.45153019,0,0,0.4515302,4.3610902,0.20117487)">
    <path
       style="opacity:0.2"
       d="m 25.990234,4.9996704 c -4.382829,0.1169767 -6.976562,4.2702431 -8.820312,7.8574216 -0.341003,0.180941 -0.683814,0.354731 -1.023438,0.542969 -3.479938,2.339614 -6.3300173,5.578154 -8.5312496,9.123047 -1.9362809,3.417753 -3.1107263,7.219389 -3.546875,11.115234 -0.2591893,3.949848 0.1923262,7.974649 1.6796875,11.669922 2.8156131,6.34713 9.7862191,13.749071 16.2441411,13.669922 -1.399112,-0.808929 -4.901578,-3.979943 -5.998047,-9.996094 1.164035,2.279805 6.42079,5.302102 7.998047,5.996094 -0.783571,-0.731721 -3.791895,-5.118817 -3.998047,-7.695313 L 9.9453125,44.193029 C 9.0590263,41.38896 8.5300005,38.487934 8.2070312,35.523108 8.1657843,34.860464 8.0835184,34.143347 8.3222656,34.319982 c 0.8930949,1.415481 2.1234594,1.862347 3.6738284,2.666016 -1.470309,-2.312517 -2.1401354,-4.963997 -1.898438,-7.71289 0.242521,-2.758263 1.798677,-5.432541 3.507813,-7.414063 0.202774,-0.23214 0.42967,-0.451556 0.640625,-0.679687 0.09139,0.709685 0.20849,1.41907 0.291015,2.105468 -0.02454,0.531112 0.301708,1.647441 0.04687,1.759766 -0.514084,1.55298 -1.004666,3.556114 0.22461,4.912109 0.389359,-1.755232 2.304887,-2.601577 3.814453,-3.339843 1.706455,-0.740857 3.087708,-2.361994 4.777344,-3.140626 2.226487,-1.277211 4.376221,0.523438 7.236328,0.523438 2.734422,0 5.624234,-1.00008 8.330078,-2.216797 0.629742,0.651445 1.755604,1.709404 2.248047,2.482422 h -0.0059 c 1.410398,2.255635 2.387804,4.877733 2.708985,7.451172 0.40079,3.366043 0.06449,6.718701 -1.925781,9.267578 -2.37e-4,4e-5 -0.01563,0.002 -0.01563,0.002 4.6e-5,0 0.01347,-3.6e-5 0.01367,0 0.04102,0.0054 3.611182,0.259883 5.992188,-2 -1.698781,13.135036 -9.752796,20.155925 -13.994141,21.990234 5.47079,0.36818 9.641566,-3.659202 9.900391,-3.914062 -0.612405,0.77104 -2.447254,3.04343 -3.904297,3.914062 3.689411,-1.033073 6.160079,-1.40867 8.488281,-3.107421 -8.71e-4,0 1.891547,-1.030003 3.865235,-3.28125 0.262569,-0.299496 0.714061,-0.713613 0.984375,-1.054688 0.168031,-0.212028 0.324049,-0.42954 0.488281,-0.642578 0.02895,-0.03502 0.06201,-0.06994 0.08984,-0.105469 4.1541,-5.081785 6.17538,-11.399425 6.02539,-17.125 C 59.954959,28.719143 57.13833,22.693381 52.40625,17.712561 48.98406,14.11049 45.09782,11.70789 41.597656,10.515295 37.062767,9.2130667 31.467156,8.658415 27.464844,9.415686 c -0.379017,0.1267196 0.05761,-2.0834384 0.52539,-2.4160156 -0.957538,0.089637 -1.980795,1.9059326 -2.826172,2.7832031 -0.0954,0.020465 -0.178984,0.044007 -0.267578,0.066406 0.524621,-1.0631142 0.271144,-1.7788886 1.09375,-2.8496094 -2.398126,0.4477188 -2.869,2.0137314 -3.701172,3.5800789 -0.315664,0.106586 -0.619361,0.237609 -0.929687,0.355468 0.787815,-2.6105493 2.221156,-3.9424911 4.630859,-5.9355466 z"
       id="path1" />
    <path
       style="fill:#304776"
       d="m 12.848705,49.816127 c 2.428951,3.493463 5.564376,7.609615 9.143849,8.161537 -1.399111,-0.808929 -4.901049,-3.979713 -5.997518,-9.995864 1.164035,2.279805 6.419434,5.303526 7.996691,5.997518 -0.78357,-0.731721 -3.792193,-5.120319 -3.998345,-7.696815 L 9.9089106,43.182276 c 0.06283,0.0956 0.2860654,2.90135 2.9397944,6.633851 z"
       id="path3" />
    <path
       style="opacity:0.2"
       d="M 48.756945,25.978163 30.574727,19.601867 11.089251,20.90028 6.1161583,27.106416 c 0.8848932,5.73688 0.3350959,11.947098 3.4167361,16.959218 L 43.983454,54.978 48.727841,41.735166 Z"
       id="path4" />
    <path
       style="fill:#ebebeb"
       d="M 48.756945,24.979481 30.574727,18.603186 11.089251,19.901598 6.1161583,26.107734 c 0.8848932,5.73688 0.3350959,11.947098 3.4167361,16.959218 L 43.983454,53.979318 48.727841,40.736485 Z"
       id="path5" />
    <path
       style="fill:#3f7da7;fill-rule:evenodd"
       d="m 11.555692,19.528801 3.282753,0.468846 0.901258,-4.393287 -1.802516,0.878657 z"
       id="path6" />
    <path
       style="opacity:0.2"
       d="M 47.278005,29.476196 44.580423,20.61467 11.585519,20.283517 11.398445,20.514031 11.089251,20.901598 24,39 Z"
       id="path7" />
    <path
       style="fill:#f7f7f7"
       d="M 47.278005,28.476196 44.580423,19.61467 11.585519,19.283517 11.398445,19.514031 11.089251,19.901598 24,38 Z"
       id="path8" />
    <path
       style="fill:#2f67a4"
       d="m 30.503704,8.3352141 c -0.0034,7.917e-4 -4.148479,0.019972 -5.957846,0.6009747 -3.014965,0.6957653 -5.719906,1.9783542 -8.399987,3.4637992 -3.479938,2.339614 -6.329877,5.578996 -8.5311093,9.123889 -1.9362809,3.417754 -3.1096022,7.219453 -3.5457509,11.115298 -0.2591893,3.949848 0.1926363,7.974564 1.6799976,11.669837 2.8156131,6.34713 9.7856236,13.747801 16.2435456,13.668652 -0.820296,-0.126482 -1.44493,-0.957176 -2.215427,-1.407636 -2.591672,-1.515183 -5.056106,-4.061023 -6.928422,-6.753901 -2.65373,-3.732499 -2.8764832,-6.536965 -2.9393124,-6.632575 l 0.035511,0.011 C 9.0582754,40.389926 8.5305795,37.489512 8.2075414,34.524053 8.1662945,33.86141 8.0835267,33.142737 8.3222739,33.319372 c 0.8930949,1.41548 2.1240481,1.863723 3.6744171,2.667392 -1.470309,-2.312517 -2.1409117,-4.963954 -1.899214,-7.712848 0.242521,-2.758263 1.798775,-5.43232 3.507911,-7.413842 4.477738,-5.126208 11.011402,-9.273279 16.898316,-12.5248599 z"
       id="path9" />
    <path
       style="opacity:0.1;fill:#ffffff"
       d="m 30.503906,8.3359375 c -0.0034,7.917e-4 -4.149617,0.018607 -5.958984,0.5996094 -3.014965,0.6957653 -5.718357,1.9793991 -8.398438,3.4648441 -3.479938,2.339614 -6.3300173,5.578154 -8.5312496,9.123047 -1.9362809,3.417753 -3.1107263,7.219389 -3.546875,11.115234 -0.05177,0.78893 -0.066142,1.581365 -0.058594,2.373047 0.010456,-0.458089 0.028624,-0.916335 0.058594,-1.373047 0.4361487,-3.895845 1.6105941,-7.697481 3.546875,-11.115234 2.2012323,-3.544894 5.0513116,-6.783433 8.5312496,-9.123047 2.680081,-1.485445 5.383473,-2.769079 8.398438,-3.4648441 1.067365,-0.3427398 2.707033,-0.4699266 4.070312,-0.5332031 0.633675,-0.3639011 1.266263,-0.7226243 1.888672,-1.0664063 z"
       id="path10" />
    <path
       style="fill:#4a96e1"
       d="m 25.990884,4.0000075 c -4.737368,0.1264393 -7.397788,4.9778089 -9.26473,8.7221275 -0.672468,1.19013 -1.369504,2.602374 -1.956888,3.726491 -1.124206,1.771473 -0.464348,3.89897 -0.231332,5.837054 -0.02454,0.531112 0.300813,1.646185 0.04598,1.75851 -0.514084,1.55298 -1.003961,3.556918 0.225315,4.912913 0.389359,-1.755232 2.304929,-2.600966 3.814495,-3.339232 1.706455,-0.740857 3.087736,-2.363239 4.777372,-3.141871 2.226487,-1.277211 4.376363,0.524 7.23647,0.524 2.734422,0 5.623107,-0.999698 8.328951,-2.216415 0.629742,0.651445 1.756067,1.709547 2.24851,2.482565 h -0.007 c 1.410398,2.255635 2.388267,4.877784 2.709448,7.451223 0.40079,3.366043 0.06497,6.71716 -1.925303,9.266037 -2.36e-4,4e-5 -0.01579,0.0034 -0.01579,0.0034 4.6e-5,0 0.01379,-3.6e-5 0.01399,0 0.04102,0.0054 3.610414,0.259011 5.99142,-2.000872 -1.698781,13.135036 -9.752864,20.156589 -13.994209,21.990899 5.646058,0.379975 9.995864,-3.998345 9.995864,-3.998345 0.821078,-1.16943 -1.984675,2.795109 -3.998345,3.998345 3.689411,-1.033074 6.159317,-1.408509 8.487519,-3.10726 -8.71e-4,0 1.891865,-1.029895 3.865553,-3.281142 0.262569,-0.299496 0.713676,-0.715086 0.98399,-1.056161 0.168031,-0.212028 0.323363,-0.42946 0.487595,-0.642498 0.02895,-0.03502 0.06195,-0.06833 0.08978,-0.103857 4.1541,-5.081785 6.177153,-11.400088 6.027163,-17.125663 C 59.95588,27.719573 57.13888,21.694537 52.4068,16.713717 48.98461,13.111646 45.098021,10.708092 41.597857,9.5154973 37.062968,8.2132686 31.467849,7.6580981 27.465537,8.4153691 27.08652,8.5420887 27.522288,6.3317508 27.990072,5.9991736 26.867927,6.1042201 25.651672,8.5915568 24.742402,9.1452023 25.488618,7.9088911 25.093295,7.1675137 25.9909,5.9991736 22.654037,6.62215 23.063787,9.4061825 21.012426,11.350879 21.688266,7.7372929 23.17851,6.3261175 25.9909,4.0000009 Z"
       id="path11" />
    <path
       style="fill:#5c5f60"
       d="m 17.815241,25.95908 c 0,0 0.358872,-0.346321 0.171799,-0.979599 -2.237115,0.739668 -3.335625,-1.401722 -3.327819,-1.401722 0.0076,0 -1.676022,4.412314 0.333638,6.411487 0.174086,-1.646529 2.739233,-3.94404 2.747039,-3.94404"
       id="path14" />
    <circle
       style="fill:#5c5f60"
       cx="19"
       cy="20"
       r="1"
       id="circle14" />
    <path
       style="opacity:0.1;fill:#ffffff"
       d="m 25.990234,4 c -4.737368,0.1264393 -7.396729,4.9783376 -9.263672,8.722656 -0.672467,1.19013 -1.369647,2.602446 -1.957031,3.726563 -0.58334,0.9192 -0.679812,1.934035 -0.611328,2.96875 0.0511,-0.684114 0.217716,-1.348514 0.611328,-1.96875 0.587384,-1.124117 1.284564,-2.536433 1.957031,-3.726563 1.677859,-3.365094 4.001277,-7.6131839 7.892579,-8.5332029 C 25.049135,4.8051499 25.474424,4.4266243 25.990234,4 Z m 0,2 c -3.126607,0.5837227 -2.987986,3.056689 -4.642578,4.966797 -0.127191,0.426476 -0.241753,0.881182 -0.335937,1.384765 1.927508,-1.827283 1.684453,-4.3965131 4.416015,-5.2167964 C 25.529325,6.781676 25.666955,6.4207868 25.990234,6 Z m 2,0 C 27.078312,6.0853671 26.10807,7.7308719 25.287109,8.6464844 25.188623,9.1017361 25.090573,9.5673351 24.742188,10.144531 25.508926,9.6776721 26.494218,7.8496484 27.457031,7.2207031 27.583025,6.691078 27.778283,6.1506893 27.990234,6 Z m 2.734375,2.0839844 c -1.158225,0.034097 -2.259187,0.1427135 -3.259765,0.3320312 -0.02293,0.00767 -0.04146,0.0046 -0.05859,-0.00391 -0.112843,0.5629762 -0.126773,1.0658812 0.05859,1.0039062 4.002312,-0.757271 9.597923,-0.2026191 14.132812,1.0996092 3.500164,1.192595 7.386404,3.595195 10.808594,7.197266 4.73208,4.98082 7.548709,11.006582 7.519531,17.947265 0.0013,0.05112 -9.93e-4,0.103083 0,0.154297 0.0093,-0.386921 0.01001,-0.772114 0,-1.154297 C 59.954959,27.719473 57.13833,21.693711 52.40625,16.712891 48.98406,13.11082 45.09782,10.70822 41.597656,9.515625 38.196489,8.5389535 34.199285,7.9816943 30.724609,8.0839844 Z"
       id="path15" />
  </g>
  <path
     style="display:inline;mix-blend-mode:normal;fill:url(#linearGradient3403);fill-opacity:1;stroke:url(#linearGradient20558);stroke-width:1.16242;stroke-linecap:butt;stroke-linejoin:round;stroke-miterlimit:4;stroke-dasharray:none;stroke-opacity:1;filter:url(#filter20720)"
     d="M 4.7043071,3.9814882 4.6913695,60.80196 H 58.59546 l 1.022155,-2.866369 c 0,0 -23.87537,0.766388 -32.844441,-4.140386 C 16.257548,48.042344 11.401114,4.0978197 11.401114,4.0978197 Z"
     id="path1686"
     transform="matrix(0.49999999,0,0,0.5,0.06630363,0.01654935)" />
  <rect
     style="display:inline;fill:none;fill-opacity:1;stroke:url(#linearGradient4557);stroke-width:3.71366;stroke-linejoin:round;stroke-miterlimit:7.8;stroke-dasharray:none;stroke-opacity:0.995146;filter:url(#filter4601)"
     id="rect4539"
     width="62.567089"
     height="62.866646"
     x="1.0323594"
     y="0.59551275"
     ry="6.2447233"
     rx="5.8029528"
     transform="matrix(0.46839137,0,0,0.46743669,0.90638486,1.0268972)" />
</svg>

<svg width="32" height="32" version="1.1" viewBox="0 0 32 32" xmlns="http://www.w3.org/2000/svg" xmlns:xlink="http://www.w3.org/1999/xlink">
<defs>
<linearGradient id="linearGradient3403" x1="6.9492" x2="11.215" y1="4.5549" y2="59.052" gradientUnits="userSpaceOnUse">
<stop style="stop-color:#32373c" offset="0"/>
<stop style="stop-color:#1a1a1a" offset=".36805"/>
<stop style="stop-color:#31363b" offset="1"/>
</linearGradient>
<linearGradient id="linearGradient20558" x1="25.802" x2="25.111" y1="20.374" y2="58.913" gradientUnits="userSpaceOnUse">
<stop style="stop-color:#3d3d3d" offset="0"/>
<stop offset=".61772"/>
<stop style="stop-color:#3d3d3d" offset="1"/>
</linearGradient>
<linearGradient id="linearGradient4557" x1="43.5" x2="44.142" y1="64.012" y2=".30621" gradientTransform="translate(.36068 -.13017)" gradientUnits="userSpaceOnUse">
<stop style="stop-color:#141618" offset="0"/>
<stop style="stop-color:#686868" offset=".51821"/>
<stop style="stop-color:#31363b" offset="1"/>
</linearGradient>
<linearGradient id="linearGradient919" x1="7.4006" x2="33.063" y1="41.743" y2="7.1074" gradientTransform="scale(.665)" gradientUnits="userSpaceOnUse">
<stop style="stop-opacity:.99608" offset="0"/>
<stop style="stop-color:#353a3f;stop-opacity:.99608" offset="1"/>
</linearGradient>
</defs>
<rect x="2.1033" y="2.0073" width="27.986" height="28.404" ry="0" style="fill-rule:evenodd;fill:url(#linearGradient919)"/>
<g transform="matrix(.45153 0 0 .45153 4.3611 .20117)">
<path d="m25.99 4.9997c-4.3828 0.11698-6.9766 4.2702-8.8203 7.8574-0.341 0.18094-0.68381 0.35473-1.0234 0.54297-3.4799 2.3396-6.33 5.5782-8.5312 9.123-1.9363 3.4178-3.1107 7.2194-3.5469 11.115-0.25919 3.9498 0.19233 7.9746 1.6797 11.67 2.8156 6.3471 9.7862 13.749 16.244 13.67-1.3991-0.80893-4.9016-3.9799-5.998-9.9961 1.164 2.2798 6.4208 5.3021 7.998 5.9961-0.78357-0.73172-3.7919-5.1188-3.998-7.6953l-10.049-3.0898c-0.88629-2.8041-1.4153-5.7051-1.7383-8.6699-0.041247-0.66264-0.12351-1.3798 0.11523-1.2031 0.89309 1.4155 2.1235 1.8623 3.6738 2.666-1.4703-2.3125-2.1401-4.964-1.8984-7.7129 0.24252-2.7583 1.7987-5.4325 3.5078-7.4141 0.20277-0.23214 0.42967-0.45156 0.64062-0.67969 0.09139 0.70968 0.20849 1.4191 0.29102 2.1055-0.02454 0.53111 0.30171 1.6474 0.04687 1.7598-0.51408 1.553-1.0047 3.5561 0.22461 4.9121 0.38936-1.7552 2.3049-2.6016 3.8145-3.3398 1.7065-0.74086 3.0877-2.362 4.7773-3.1406 2.2265-1.2772 4.3762 0.52344 7.2363 0.52344 2.7344 0 5.6242-1.0001 8.3301-2.2168 0.62974 0.65144 1.7556 1.7094 2.248 2.4824h-0.0059c1.4104 2.2556 2.3878 4.8777 2.709 7.4512 0.40079 3.366 0.06449 6.7187-1.9258 9.2676-2.37e-4 4e-5 -0.01563 2e-3 -0.01563 2e-3 4.6e-5 0 0.01347-3.6e-5 0.01367 0 0.04102 0.0054 3.6112 0.25988 5.9922-2-1.6988 13.135-9.7528 20.156-13.994 21.99 5.4708 0.36818 9.6416-3.6592 9.9004-3.9141-0.6124 0.77104-2.4473 3.0434-3.9043 3.9141 3.6894-1.0331 6.1601-1.4087 8.4883-3.1074-8.71e-4 0 1.8915-1.03 3.8652-3.2812 0.26257-0.2995 0.71406-0.71361 0.98438-1.0547 0.16803-0.21203 0.32405-0.42954 0.48828-0.64258 0.02895-0.03502 0.06201-0.06994 0.08984-0.10547 4.1541-5.0818 6.1754-11.399 6.0254-17.125 0.029233-6.9407-2.7874-12.966-7.5195-17.947-3.4222-3.6021-7.3084-6.0047-10.809-7.1973-4.5349-1.3022-10.13-1.8569-14.133-1.0996-0.37902 0.12672 0.05761-2.0834 0.52539-2.416-0.95754 0.089637-1.9808 1.9059-2.8262 2.7832-0.0954 0.020465-0.17898 0.044007-0.26758 0.066406 0.52462-1.0631 0.27114-1.7789 1.0938-2.8496-2.3981 0.44772-2.869 2.0137-3.7012 3.5801-0.31566 0.10659-0.61936 0.23761-0.92969 0.35547 0.78782-2.6105 2.2212-3.9425 4.6309-5.9355z" style="opacity:.2"/>
<path d="m12.849 49.816c2.429 3.4935 5.5644 7.6096 9.1438 8.1615-1.3991-0.80893-4.901-3.9797-5.9975-9.9959 1.164 2.2798 6.4194 5.3035 7.9967 5.9975-0.78357-0.73172-3.7922-5.1203-3.9983-7.6968l-10.084-3.1002c0.06283 0.0956 0.28607 2.9014 2.9398 6.6339z" style="fill:#304776"/>
<path d="m48.757 25.978-18.182-6.3763-19.485 1.2984-4.9731 6.2061c0.88489 5.7369 0.3351 11.947 3.4167 16.959l34.451 10.912 4.7444-13.243z" style="opacity:.2"/>
<path d="m48.757 24.979-18.182-6.3763-19.485 1.2984-4.9731 6.2061c0.88489 5.7369 0.3351 11.947 3.4167 16.959l34.451 10.912 4.7444-13.243z" style="fill:#ebebeb"/>
<path d="m11.556 19.529 3.2828 0.46885 0.90126-4.3933-1.8025 0.87866z" style="fill-rule:evenodd;fill:#3f7da7"/>
<path d="m47.278 29.476-2.6976-8.8615-32.995-0.33115-0.18707 0.23051-0.30919 0.38757 12.911 18.098z" style="opacity:.2"/>
<path d="m47.278 28.476-2.6976-8.8615-32.995-0.33115-0.18707 0.23051-0.30919 0.38757 12.911 18.098z" style="fill:#f7f7f7"/>
<path d="m30.504 8.3352c-0.0034 7.917e-4 -4.1485 0.019972-5.9578 0.60097-3.015 0.69577-5.7199 1.9784-8.4 3.4638-3.4799 2.3396-6.3299 5.579-8.5311 9.1239-1.9363 3.4178-3.1096 7.2195-3.5458 11.115-0.25919 3.9498 0.19264 7.9746 1.68 11.67 2.8156 6.3471 9.7856 13.748 16.244 13.669-0.8203-0.12648-1.4449-0.95718-2.2154-1.4076-2.5917-1.5152-5.0561-4.061-6.9284-6.7539-2.6537-3.7325-2.8765-6.537-2.9393-6.6326l0.035511 0.011c-0.88663-2.8046-1.4143-5.705-1.7374-8.6705-0.041247-0.66264-0.12401-1.3813 0.11473-1.2047 0.89309 1.4155 2.124 1.8637 3.6744 2.6674-1.4703-2.3125-2.1409-4.964-1.8992-7.7128 0.24252-2.7583 1.7988-5.4323 3.5079-7.4138 4.4777-5.1262 11.011-9.2733 16.898-12.525z" style="fill:#2f67a4"/>
<path d="m30.504 8.3359c-0.0034 7.917e-4 -4.1496 0.018607-5.959 0.59961-3.015 0.69577-5.7184 1.9794-8.3984 3.4648-3.4799 2.3396-6.33 5.5782-8.5312 9.123-1.9363 3.4178-3.1107 7.2194-3.5469 11.115-0.05177 0.78893-0.066142 1.5814-0.058594 2.373 0.010456-0.45809 0.028624-0.91634 0.058594-1.373 0.43615-3.8958 1.6106-7.6975 3.5469-11.115 2.2012-3.5449 5.0513-6.7834 8.5312-9.123 2.6801-1.4854 5.3835-2.7691 8.3984-3.4648 1.0674-0.34274 2.707-0.46993 4.0703-0.5332 0.63368-0.3639 1.2663-0.72262 1.8887-1.0664z" style="fill:#fff;opacity:.1"/>
<path d="m25.991 4c-4.7374 0.12644-7.3978 4.9778-9.2647 8.7221-0.67247 1.1901-1.3695 2.6024-1.9569 3.7265-1.1242 1.7715-0.46435 3.899-0.23133 5.8371-0.02454 0.53111 0.30081 1.6462 0.04598 1.7585-0.51408 1.553-1.004 3.5569 0.22532 4.9129 0.38936-1.7552 2.3049-2.601 3.8145-3.3392 1.7065-0.74086 3.0877-2.3632 4.7774-3.1419 2.2265-1.2772 4.3764 0.524 7.2365 0.524 2.7344 0 5.6231-0.9997 8.329-2.2164 0.62974 0.65144 1.7561 1.7095 2.2485 2.4826h-7e-3c1.4104 2.2556 2.3883 4.8778 2.7094 7.4512 0.40079 3.366 0.06497 6.7172-1.9253 9.266-2.36e-4 4e-5 -0.01579 0.0034-0.01579 0.0034 4.6e-5 0 0.01379-3.6e-5 0.01399 0 0.04102 0.0054 3.6104 0.25901 5.9914-2.0009-1.6988 13.135-9.7529 20.157-13.994 21.991 5.6461 0.37998 9.9959-3.9983 9.9959-3.9983 0.82108-1.1694-1.9847 2.7951-3.9983 3.9983 3.6894-1.0331 6.1593-1.4085 8.4875-3.1073-8.71e-4 0 1.8919-1.0299 3.8656-3.2811 0.26257-0.2995 0.71368-0.71509 0.98399-1.0562 0.16803-0.21203 0.32336-0.42946 0.4876-0.6425 0.02895-0.03502 0.06195-0.06833 0.08978-0.10386 4.1541-5.0818 6.1772-11.4 6.0272-17.126 0.029178-6.9407-2.7878-12.966-7.5199-17.947-3.4222-3.6021-7.3088-6.0056-10.809-7.1982-4.5349-1.3022-10.13-1.8574-14.132-1.1001-0.37902 0.12672 0.056751-2.0836 0.52454-2.4162-1.1221 0.10505-2.3384 2.5924-3.2477 3.146 0.74622-1.2363 0.35089-1.9777 1.2485-3.146-3.3369 0.62298-2.9271 3.407-4.9785 5.3517 0.67584-3.6136 2.1661-5.0248 4.9785-7.3509z" style="fill:#4a96e1"/>
<path d="m17.815 25.959s0.35887-0.34632 0.1718-0.9796c-2.2371 0.73967-3.3356-1.4017-3.3278-1.4017 0.0076 0-1.676 4.4123 0.33364 6.4115 0.17409-1.6465 2.7392-3.944 2.747-3.944" style="fill:#5c5f60"/>
<circle cx="19" cy="20" r="1" style="fill:#5c5f60"/>
<path d="m25.99 4c-4.7374 0.12644-7.3967 4.9783-9.2637 8.7227-0.67247 1.1901-1.3696 2.6024-1.957 3.7266-0.58334 0.9192-0.67981 1.934-0.61133 2.9688 0.0511-0.68411 0.21772-1.3485 0.61133-1.9688 0.58738-1.1241 1.2846-2.5364 1.957-3.7266 1.6779-3.3651 4.0013-7.6132 7.8926-8.5332 0.42999-0.3843 0.85528-0.76283 1.3711-1.1895zm0 2c-3.1266 0.58372-2.988 3.0567-4.6426 4.9668-0.12719 0.42648-0.24175 0.88118-0.33594 1.3848 1.9275-1.8273 1.6845-4.3965 4.416-5.2168 0.10159-0.35309 0.23922-0.71398 0.5625-1.1348zm2 0c-0.91192 0.085367-1.8822 1.7309-2.7031 2.6465-0.098486 0.45525-0.19654 0.92085-0.54492 1.498 0.76674-0.46686 1.752-2.2949 2.7148-2.9238 0.12599-0.52963 0.32125-1.07 0.5332-1.2207zm2.7344 2.084c-1.1582 0.034097-2.2592 0.14271-3.2598 0.33203-0.02293 0.00767-0.04146 0.0046-0.05859-0.00391-0.11284 0.56298-0.12677 1.0659 0.05859 1.0039 4.0023-0.75727 9.5979-0.20262 14.133 1.0996 3.5002 1.1926 7.3864 3.5952 10.809 7.1973 4.7321 4.9808 7.5487 11.007 7.5195 17.947 0.0013 0.05112-9.93e-4 0.10308 0 0.1543 0.0093-0.38692 0.01001-0.77211 0-1.1543 0.029178-6.9407-2.7875-12.966-7.5195-17.947-3.4222-3.6021-7.3084-6.0047-10.809-7.1973-3.4012-0.97667-7.3984-1.5339-10.873-1.4316z" style="fill:#fff;opacity:.1"/>
</g>
<path transform="matrix(.5 0 0 .5 .066304 .016549)" d="m4.7043 3.9815-0.012938 56.82h53.904l1.0222-2.8664s-23.875 0.76639-32.844-4.1404c-10.516-5.7529-15.372-49.697-15.372-49.697z" style="fill:url(#linearGradient3403);mix-blend-mode:normal;stroke-linejoin:round;stroke-width:1.1624;stroke:url(#linearGradient20558)"/>
<rect transform="matrix(.46839 0 0 .46744 .90638 1.0269)" x="1.0324" y=".59551" width="62.567" height="62.867" rx="5.803" ry="6.2447" style="fill:none;stroke-linejoin:round;stroke-miterlimit:7.8;stroke-opacity:.99515;stroke-width:3.7137;stroke:url(#linearGradient4557)"/>
</svg>
